loleaflet/images/lc_basicshapes.cross.svg

<svg xmlns="http://www.w3.org/2000/svg" viewBox="0 0 16 16"><path d="M16,16.4v4.2a.43.43,0,0,1-.4.4H10.4a.43.43,0,0,1-.4-.4V16.4a.43.43,0,0,0-.4-.4H5.4a.43.43,0,0,1-.4-.4V10.4a.43.43,0,0,1,.4-.4H9.6a.43.43,0,0,0,.4-.4V5.4a.43.43,0,0,1,.4-.4h5.2a.43.43,0,0,1,.4.4V9.6a.43.43,0,0,0,.4.4h4.2a.43.43,0,0,1,.4.4v5.2a.43.43,0,0,1-.4.4H16.4A.43.43,0,0,0,16,16.4ZM18.6,12H14.4a.43.43,0,0,1-.4-.4V7H12v4.6a.43.43,0,0,1-.4.4H7.4a.43.43,0,0,0-.4.4v1.2a.43.43,0,0,0,.4.4h4.2a.43.43,0,0,1,.4.4V19h2V14.4a.43.43,0,0,1,.4-.4h4.2a.43.43,0,0,0,.4-.4V12.4A.43.43,0,0,0,18.6,12Z" transform="translate(-5 -5)" fill="#696d72" fill-rule="evenodd"/></svg>

<?xml version="1.0" encoding="utf-8"?>
<!-- Generator: Adobe Illustrator 25.0.0, SVG Export Plug-In . SVG Version: 6.00 Build 0)  -->
<svg version="1.1" id="Layer_1" xmlns="http://www.w3.org/2000/svg" xmlns:xlink="http://www.w3.org/1999/xlink" x="0px" y="0px"
	 viewBox="0 0 26 26" enable-background="new 0 0 26 26" xml:space="preserve">
<path fill-rule="evenodd" clip-rule="evenodd" fill="#696D72" d="M16,16.4v4.2c0,0.2-0.2,0.4-0.4,0.4h-5.2c-0.2,0-0.4-0.2-0.4-0.4
	v-4.2c0-0.2-0.2-0.4-0.4-0.4H5.4C5.2,16,5,15.8,5,15.6v-5.2C5,10.2,5.2,10,5.4,10h4.2C9.8,10,10,9.8,10,9.6V5.4
	C10,5.2,10.2,5,10.4,5h5.2C15.8,5,16,5.2,16,5.4v4.2c0,0.2,0.2,0.4,0.4,0.4h4.2c0.2,0,0.4,0.2,0.4,0.4v5.2c0,0.2-0.2,0.4-0.4,0.4
	h-4.2C16.2,16,16,16.2,16,16.4z M18.6,12h-4.2c-0.2,0-0.4-0.2-0.4-0.4V10V8V7h-2v1v2v1.6c0,0.2-0.2,0.4-0.4,0.4H7.4
	C7.2,12,7,12.2,7,12.4v1.2C7,13.8,7.2,14,7.4,14h4.2c0.2,0,0.4,0.2,0.4,0.4V16v2v1h2v-1v-2v-1.6c0-0.2,0.2-0.4,0.4-0.4h4.2
	c0.2,0,0.4-0.2,0.4-0.4v-1.2C19,12.2,18.8,12,18.6,12z"/>
</svg>
